src/assets/img/icons/duotone-icons/Home/Couch.svg

<?xml version="1.0" encoding="UTF-8"?>
<svg width="24px" height="24px" viewBox="0 0 24 24" version="1.1" xmlns="http://www.w3.org/2000/svg" xmlns:xlink="http://www.w3.org/1999/xlink">
    <!-- Generator: Sketch 52.2 (67145) - http://www.bohemiancoding.com/sketch -->
    <title>Stockholm-icons / Home / Couch</title>
    <desc>Created with Sketch.</desc>
    <g id="Stockholm-icons-/-Home-/-Couch" stroke="none" stroke-width="1" fill="none" fill-rule="evenodd">
        <path d="M6,20 L4,20 C4,17.2385763 6.23857625,16 9,16 L15,16 C17.7614237,16 20,17.2385763 20,20 L18,20 C18,18.3431458 16.6568542,18 15,18 L9,18 C7.34314575,18 6,18.3431458 6,20 Z" id="Path-61" fill="#335EEA" opacity="0.3"></path>
        <path d="M23,8 L21.173913,8 C20.0693435,8 19.173913,8.8954305 19.173913,10 L19.173913,12 C19.173913,12.5522847 18.7261978,13 18.173913,13 L5.86956522,13 C5.31728047,13 4.86956522,12.5522847 4.86956522,12 L4.86956522,10 C4.86956522,8.8954305 3.97413472,8 2.86956522,8 L1,8 C1,6.34314575 2.34314575,5 4,5 L20,5 C21.6568542,5 23,6.34314575 23,8 Z" id="Path" fill="#335EEA" opacity="0.3"></path>
        <path d="M23,10 L23,15 C23,16.6568542 21.6568542,18 20,18 L4,18 C2.34314575,18 1,16.6568542 1,15 L1,10 L2.86956522,10 L2.86956522,12 C2.86956522,13.6568542 4.21271097,15 5.86956522,15 L18.173913,15 C19.8307673,15 21.173913,13.6568542 21.173913,12 L21.173913,10 L23,10 Z" id="Combined-Shape" fill="#335EEA"></path>
    </g>
</svg>

<svg width="24" height="24" viewBox="0 0 24 24" xmlns="http://www.w3.org/2000/svg"><g fill="#335EEA" fill-rule="evenodd"><path d="M6 20H4c0-2.761 2.239-4 5-4h6c2.761 0 5 1.239 5 4h-2c0-1.657-1.343-2-3-2H9c-1.657 0-3 .343-3 2zM23 8h-1.826a2 2 0 00-2 2v2a1 1 0 01-1 1H5.87a1 1 0 01-1-1v-2a2 2 0 00-2-2H1a3 3 0 013-3h16a3 3 0 013 3z" opacity=".3"/><path d="M23 10v5a3 3 0 01-3 3H4a3 3 0 01-3-3v-5h1.87v2a3 3 0 003 3h12.304a3 3 0 003-3v-2H23z"/></g></svg>
